<?xml version="1.0" encoding="UTF-8"?>
<map version="1.10" tiledversion="1.12.0" orientation="orthogonal" renderorder="right-down" width="16" height="12" tilewidth="16" tileheight="16" infinite="0" nextlayerid="5" nextobjectid="18">
 <properties>
  <property name="map" value="billies_bar"/>
 </properties>
 <tileset firstgid="1" source="tiled/floors.tsx"/>
 <tileset firstgid="13" source="tiled/walls.tsx"/>
 <tileset firstgid="55" source="tiled/dressing.tsx"/>
 <layer id="1" name="floor" width="16" height="12">
  <data encoding="csv">
3,3,3,3,3,3,3,3,3,3,3,3,3,3,3,3,
3,3,3,3,3,3,3,3,3,3,3,3,3,3,3,3,
3,3,3,3,3,3,3,3,3,3,3,3,3,3,3,3,
3,3,3,3,3,3,3,3,3,3,3,3,3,3,3,3,
3,3,3,3,3,3,3,3,3,3,3,3,3,3,3,3,
3,3,3,3,3,3,3,3,3,3,3,3,3,3,3,3,
3,3,3,3,3,3,3,3,3,3,3,3,3,3,3,3,
3,3,3,3,3,3,3,3,3,3,3,3,3,3,3,3,
3,3,3,3,3,3,3,3,3,3,3,3,3,3,3,3,
3,3,3,3,3,3,3,3,3,3,3,3,3,3,3,3,
3,3,3,3,3,3,3,3,3,3,3,3,3,3,3,3,
3,3,3,3,3,3,3,3,3,3,3,3,3,3,3,3
</data>
 </layer>
 <layer id="3" name="walls" width="16" height="12">
  <data encoding="csv">
31,31,31,31,31,31,31,31,31,31,31,31,31,31,31,31,
14,0,49,49,0,49,49,0,0,0,0,45,45,45,0,14,
14,50,0,0,0,0,0,51,0,50,0,0,46,0,0,14,
14,47,47,47,47,47,47,47,47,0,0,0,0,0,0,14,
14,0,0,0,0,0,0,0,0,0,0,0,0,0,0,14,
14,0,0,0,0,0,0,0,0,0,0,0,0,0,0,14,
14,0,0,0,0,0,0,0,0,0,0,0,0,0,0,14,
14,0,0,0,0,0,0,0,0,0,0,0,0,0,0,14,
14,0,0,0,0,0,0,0,0,0,0,0,0,0,0,14,
14,0,0,0,0,0,0,0,0,0,0,0,0,0,0,14,
14,0,0,0,0,0,0,0,0,0,0,0,0,0,0,14,
14,14,14,25,14,14,14,14,14,14,14,25,14,14,14,14
</data>
 </layer>
 <layer id="4" name="dressing" width="16" height="12">
  <data encoding="csv">
0,0,0,0,0,0,0,0,0,0,0,0,0,0,0,0,
0,0,0,0,0,0,0,0,0,0,0,0,0,0,0,0,
0,0,0,0,0,0,0,0,0,0,0,0,0,0,0,0,
0,0,0,0,0,0,0,0,0,0,0,0,0,0,0,0,
0,0,0,0,0,0,0,0,0,0,0,0,0,0,0,0,
0,0,0,0,0,0,0,0,0,0,0,0,0,0,0,0,
0,0,0,0,0,0,0,0,0,0,0,0,0,0,0,0,
0,0,0,0,0,0,0,0,0,0,0,0,0,0,0,0,
0,0,0,0,0,0,0,0,0,0,0,0,0,0,0,0,
0,0,0,0,0,0,0,0,0,0,0,0,0,0,0,0,
0,0,0,0,0,0,0,0,0,0,0,0,0,0,0,0,
0,0,0,0,0,0,0,0,0,0,0,0,0,0,0,0
</data>
 </layer>
 <objectgroup id="2" name="placements">
  <object id="1" name="tall_shelf" type="furniture" x="144" y="16" width="16" height="16"/>
  <object id="2" name="lamp" type="furniture" x="48" y="48" width="16" height="16">
   <properties>
    <property name="blocks" type="bool" value="false"/>
   </properties>
  </object>
  <object id="3" name="lamp" type="furniture" x="96" y="48" width="16" height="16">
   <properties>
    <property name="blocks" type="bool" value="false"/>
   </properties>
  </object>
  <object id="4" name="till" type="furniture" x="128" y="48" width="16" height="16">
   <properties>
    <property name="blocks" type="bool" value="false"/>
   </properties>
  </object>
  <object id="5" name="stool" type="furniture" x="208" y="48" width="16" height="16"/>
  <object id="6" name="candles" type="furniture" x="224" y="80" width="16" height="16"/>
  <object id="7" name="chair_back" type="furniture" x="48" y="96" width="16" height="16"/>
  <object id="8" name="chair_back" type="furniture" x="176" y="96" width="16" height="16"/>
  <object id="9" name="table" type="furniture" x="48" y="112" width="16" height="16"/>
  <object id="10" name="chair_side" type="furniture" x="80" y="112" width="16" height="16"/>
  <object id="11" name="default" type="spawn" x="112" y="112" width="16" height="16"/>
  <object id="12" name="chair_side" type="furniture" x="144" y="112" width="16" height="16"/>
  <object id="13" name="table" type="furniture" x="160" y="112" width="16" height="16"/>
  <object id="14" name="stool" type="furniture" x="16" y="128" width="16" height="16"/>
  <object id="15" name="stool" type="furniture" x="208" y="128" width="16" height="16"/>
  <object id="16" name="entry" type="spawn" x="112" y="160" width="16" height="16"/>
  <object id="17" name="billies" type="door" x="112" y="176" width="16" height="16">
   <properties>
    <property name="spawn" value="from_bar"/>
   </properties>
  </object>
 </objectgroup>
</map>
