<?xml version="1.0" encoding="UTF-8"?>
<map version="1.10" tiledversion="1.12.0" orientation="orthogonal" renderorder="right-down" width="30" height="24" tilewidth="16" tileheight="16" infinite="0" nextlayerid="4" nextobjectid="19">
 <properties>
  <property name="map" value="drive_in"/>
 </properties>
 <tileset firstgid="1" source="tiled/surfaces.tsx"/>
 <tileset firstgid="11" source="tiled/obstacles.tsx"/>
 <layer id="1" name="surface" width="30" height="24">
  <data encoding="csv">
5,5,5,5,5,5,5,5,5,5,5,5,5,5,2,2,5,5,5,5,5,5,5,5,5,5,5,5,5,5,
5,1,1,1,1,1,1,1,1,1,1,1,1,1,2,2,1,1,1,1,1,1,1,1,1,1,1,1,1,5,
5,1,1,1,1,1,1,1,1,1,1,1,1,1,2,2,1,1,1,1,1,1,1,1,1,1,1,1,1,5,
5,1,1,1,1,1,1,1,1,1,1,1,1,1,2,2,1,1,1,1,1,1,1,1,1,1,1,1,1,5,
5,1,1,1,1,1,1,1,1,1,1,1,1,1,2,2,1,1,3,3,3,3,3,1,1,1,1,1,1,5,
5,1,1,1,1,1,1,1,1,1,1,1,1,1,2,2,1,1,3,3,3,3,3,1,1,1,1,1,1,5,
5,1,1,1,1,1,1,1,1,1,1,1,1,1,2,2,1,1,3,3,3,3,3,1,1,1,1,1,1,5,
5,1,1,1,1,1,1,1,1,1,1,1,1,1,2,2,1,1,3,3,3,3,3,1,1,1,1,1,1,5,
5,1,1,1,6,6,6,6,6,6,6,6,6,6,6,6,6,6,6,6,6,6,6,6,6,6,1,1,1,5,
5,1,1,1,6,6,6,6,6,6,6,6,6,6,6,6,6,6,6,6,6,6,6,6,6,6,1,1,1,5,
5,1,1,1,6,6,6,6,6,6,6,6,6,6,6,6,6,6,6,6,6,6,6,6,6,6,1,1,1,5,
5,1,1,1,6,6,6,6,6,6,6,6,6,6,6,6,6,6,6,6,6,6,6,6,6,6,1,1,1,5,
5,1,1,1,6,6,6,6,6,6,6,6,6,6,6,6,6,6,6,6,6,6,6,6,6,6,1,1,1,5,
5,1,1,1,6,6,6,6,6,6,6,6,6,6,6,6,6,6,6,6,6,6,6,6,6,6,1,1,1,5,
5,1,1,1,6,6,6,6,6,6,6,6,6,6,6,6,6,6,6,6,6,6,6,6,6,6,1,1,1,5,
5,1,1,1,6,6,6,6,6,6,6,6,6,6,6,6,6,6,6,6,6,6,6,6,6,6,1,1,1,5,
5,1,1,1,6,6,6,6,6,6,6,6,6,6,6,6,6,6,6,6,6,6,6,6,6,6,1,1,1,5,
5,1,1,1,6,6,6,6,6,6,6,6,6,6,6,6,6,6,6,6,6,6,6,6,6,6,1,1,1,5,
5,1,1,1,6,6,6,6,6,6,6,6,6,6,6,6,6,6,6,6,6,6,6,6,6,6,1,1,1,5,
5,1,1,1,6,6,6,6,6,6,6,6,6,6,6,6,6,6,6,6,6,6,6,6,6,6,1,1,1,5,
5,1,1,1,1,1,1,1,1,1,1,1,1,1,1,1,1,1,1,1,1,1,1,1,1,1,1,1,1,5,
5,1,1,1,1,1,1,1,1,1,1,1,1,1,1,1,1,1,1,1,1,1,1,1,1,1,1,1,1,5,
5,1,1,1,1,1,1,1,1,1,1,1,1,1,1,1,1,1,1,1,1,1,1,1,1,1,1,1,1,5,
5,5,5,5,5,5,5,5,5,5,5,5,5,5,5,5,5,5,5,5,5,5,5,5,5,5,5,5,5,5
</data>
 </layer>
 <layer id="3" name="obstacles" width="30" height="24">
  <data encoding="csv">
0,0,0,0,0,0,0,0,0,0,0,0,0,0,0,0,0,0,0,0,0,0,0,0,0,0,0,0,0,0,
0,0,0,0,0,0,0,0,0,0,0,0,0,0,0,0,0,0,0,0,0,0,0,0,0,0,0,0,0,0,
0,0,0,0,0,0,0,0,0,0,0,0,0,0,0,0,0,0,0,0,0,0,0,0,0,0,0,0,0,0,
0,0,0,0,0,0,0,0,0,0,0,0,0,0,0,0,0,0,0,0,0,0,0,0,0,0,0,0,0,0,
0,0,0,0,0,0,0,0,0,0,0,0,0,0,0,0,0,0,0,0,0,0,0,0,0,0,0,0,0,0,
0,0,0,0,0,0,0,0,0,0,0,0,0,0,0,0,0,0,0,0,0,0,0,0,0,0,0,0,0,0,
0,0,0,0,0,0,0,0,0,0,0,0,0,0,0,0,0,0,0,0,0,0,0,0,0,0,0,0,0,0,
0,0,0,0,0,0,0,0,0,0,0,0,0,0,0,0,0,0,0,0,0,0,0,0,0,0,0,0,0,0,
0,0,0,0,0,0,0,0,0,0,0,0,0,0,0,0,0,0,0,0,0,0,0,0,0,0,0,0,0,0,
0,0,0,0,0,0,0,0,0,0,0,0,0,0,0,0,0,0,0,0,0,0,0,0,0,0,0,0,0,0,
0,0,0,0,0,0,0,0,0,0,0,0,0,0,0,0,0,0,0,0,0,0,0,0,0,0,0,0,0,0,
0,0,0,0,0,0,0,0,0,0,0,0,0,0,0,0,0,0,0,0,0,0,0,0,0,0,0,0,0,0,
0,0,0,0,0,0,0,0,0,0,0,0,0,0,0,0,0,0,0,0,0,0,0,0,0,0,0,0,0,0,
0,0,0,0,0,0,0,0,0,0,0,0,0,0,0,0,0,0,0,0,0,0,0,0,0,0,0,0,0,0,
0,0,0,0,0,0,0,0,0,0,0,0,0,0,0,0,0,0,0,0,0,0,0,0,0,0,0,0,0,0,
0,0,0,0,0,0,0,0,0,0,0,0,0,0,0,0,0,0,0,0,0,0,0,0,0,0,0,0,0,0,
0,0,0,0,0,0,0,0,0,0,0,0,0,0,0,0,0,0,0,0,0,0,0,0,0,0,0,0,0,0,
0,0,0,0,0,0,0,0,0,0,0,0,0,0,0,0,0,0,0,0,0,0,0,0,0,0,0,0,0,0,
0,0,0,0,0,0,0,0,0,0,0,0,0,0,0,0,0,0,0,0,0,0,0,0,0,0,0,0,0,0,
0,0,0,0,0,0,0,0,0,0,0,0,0,0,0,0,0,0,0,0,0,0,0,0,0,0,0,0,0,0,
0,0,0,0,0,0,0,0,0,0,0,0,0,0,0,0,0,0,0,0,0,0,0,0,0,0,0,0,0,0,
0,0,0,0,0,0,0,0,0,0,0,0,0,0,0,0,0,0,0,0,0,0,0,0,0,0,0,0,0,0,
0,0,0,0,0,0,0,0,0,0,0,0,0,0,0,0,0,0,0,0,0,0,0,0,0,0,0,0,0,0,
0,0,0,0,0,0,0,0,0,0,0,0,0,0,0,0,0,0,0,0,0,0,0,0,0,0,0,0,0,0
</data>
 </layer>
 <objectgroup id="2" name="placements">
  <object id="1" name="east_fork" type="exit" x="224" y="0" width="32" height="16">
   <properties>
    <property name="spawn" value="from_drive_in"/>
   </properties>
  </object>
  <object id="2" name="from_road" type="spawn" x="224" y="48" width="16" height="16"/>
  <object id="3" name="marquee" type="prop" x="160" y="64" width="16" height="16"/>
  <object id="4" name="MarqueeRead" type="sign" x="160" y="64" width="16" height="16">
   <properties>
    <property name="board" type="bool" value="false"/>
   </properties>
  </object>
  <object id="5" name="default" type="spawn" x="240" y="80" width="16" height="16"/>
  <object id="6" name="concession" type="prop" x="288" y="96" width="16" height="16"/>
  <object id="7" name="speaker" type="prop" x="96" y="160" width="16" height="16"/>
  <object id="8" name="speaker" type="prop" x="176" y="160" width="16" height="16"/>
  <object id="9" name="speaker" type="prop" x="256" y="160" width="16" height="16"/>
  <object id="10" name="speaker" type="prop" x="336" y="160" width="16" height="16"/>
  <object id="11" name="speaker" type="prop" x="96" y="224" width="16" height="16"/>
  <object id="12" name="speaker" type="prop" x="176" y="224" width="16" height="16"/>
  <object id="13" name="speaker" type="prop" x="256" y="224" width="16" height="16"/>
  <object id="14" name="speaker" type="prop" x="336" y="224" width="16" height="16"/>
  <object id="15" name="bench_a" type="prop" x="144" y="288" width="16" height="16"/>
  <object id="16" name="bench_a" type="prop" x="208" y="288" width="16" height="16"/>
  <object id="17" name="bench_a" type="prop" x="272" y="288" width="16" height="16"/>
  <object id="18" name="screen" type="prop" x="128" y="352" width="16" height="16"/>
 </objectgroup>
</map>
