<?xml version="1.0" encoding="UTF-8"?>
<map version="1.10" tiledversion="1.12.0" orientation="orthogonal" renderorder="right-down" width="14" height="10" tilewidth="16" tileheight="16" infinite="0" nextlayerid="5" nextobjectid="14">
 <properties>
  <property name="map" value="farm_house"/>
 </properties>
 <tileset firstgid="1" source="tiled/floors.tsx"/>
 <tileset firstgid="13" source="tiled/walls.tsx"/>
 <tileset firstgid="55" source="tiled/dressing.tsx"/>
 <layer id="1" name="floor" width="14" height="10">
  <data encoding="csv">
2,2,2,2,2,2,2,2,2,2,2,2,2,2,
2,2,2,2,2,2,2,2,2,2,2,2,2,2,
2,2,2,2,2,2,2,2,2,2,2,2,2,2,
2,2,2,2,2,2,2,2,2,2,2,2,2,2,
2,2,2,2,2,2,2,2,2,2,2,2,2,2,
2,2,2,2,2,2,2,2,2,2,2,2,2,2,
2,2,2,2,2,9,10,2,2,2,2,2,2,2,
2,2,2,2,2,9,10,2,2,2,2,2,2,2,
2,2,2,2,2,2,2,2,2,2,2,2,2,2,
2,2,2,2,2,2,2,2,2,2,2,2,2,2
</data>
 </layer>
 <layer id="3" name="walls" width="14" height="10">
  <data encoding="csv">
29,29,29,24,29,29,29,29,29,29,24,29,29,29,
16,0,0,0,0,0,0,0,0,0,45,45,45,16,
16,0,0,0,0,0,0,0,0,0,0,46,0,16,
16,0,0,0,0,0,0,0,0,0,0,0,0,16,
16,0,0,0,0,0,0,0,0,0,0,0,0,16,
16,0,0,0,0,0,0,0,0,0,0,0,0,16,
16,0,0,0,0,0,0,0,0,0,0,0,0,16,
16,0,0,0,0,0,0,0,0,0,0,0,0,16,
16,0,0,0,0,0,0,0,0,0,0,0,0,16,
16,16,16,16,16,16,16,16,16,16,16,16,16,16
</data>
 </layer>
 <layer id="4" name="dressing" width="14" height="10">
  <data encoding="csv">
0,0,0,0,0,0,0,0,0,0,0,0,0,0,
0,0,0,0,0,0,0,0,0,0,0,0,0,0,
0,0,0,0,0,0,0,0,0,0,0,0,0,0,
0,0,0,0,0,0,0,0,0,0,0,0,0,0,
0,0,0,0,0,0,0,0,0,0,0,0,0,0,
0,0,0,0,0,0,0,0,0,0,0,0,0,0,
0,0,0,0,0,0,0,0,0,0,0,0,0,0,
0,0,0,0,0,0,0,0,0,0,0,0,0,0,
0,0,0,0,0,0,0,0,0,0,0,0,0,0,
0,0,0,0,0,0,0,0,0,0,0,0,0,0
</data>
 </layer>
 <objectgroup id="2" name="placements">
  <object id="1" name="farm_house_chest" type="chest" x="32" y="32" width="16" height="16">
   <properties>
    <property name="art" value="cupboard"/>
   </properties>
  </object>
  <object id="2" name="stove" type="furniture" x="48" y="32" width="16" height="16"/>
  <object id="3" name="pot" type="furniture" x="64" y="32" width="16" height="16"/>
  <object id="4" name="bed" type="bed" x="192" y="48" width="16" height="16"/>
  <object id="5" name="chair_side" type="furniture" x="80" y="64" width="16" height="16"/>
  <object id="6" name="table" type="furniture" x="96" y="64" width="16" height="16"/>
  <object id="7" name="chair_back" type="furniture" x="128" y="64" width="16" height="16"/>
  <object id="8" name="default" type="spawn" x="96" y="80" width="16" height="16"/>
  <object id="9" name="lamp" type="furniture" x="144" y="96" width="16" height="16"/>
  <object id="10" name="bucket" type="furniture" x="16" y="112" width="16" height="16"/>
  <object id="11" name="sack" type="furniture" x="192" y="112" width="16" height="16"/>
  <object id="12" name="entry" type="spawn" x="112" y="128" width="16" height="16"/>
  <object id="13" name="test_farm" type="door" x="112" y="144" width="16" height="16">
   <properties>
    <property name="spawn" value="house_door"/>
   </properties>
  </object>
 </objectgroup>
</map>
