<?xml version="1.0" encoding="UTF-8"?>
<map version="1.10" tiledversion="1.12.0" orientation="orthogonal" renderorder="right-down" width="15" height="10" tilewidth="16" tileheight="16" infinite="0" nextlayerid="5" nextobjectid="11">
 <properties>
  <property name="map" value="garage_interior"/>
 </properties>
 <tileset firstgid="1" source="tiled/floors.tsx"/>
 <tileset firstgid="13" source="tiled/walls.tsx"/>
 <tileset firstgid="55" source="tiled/dressing.tsx"/>
 <layer id="1" name="floor" width="15" height="10">
  <data encoding="csv">
4,4,4,4,4,4,4,4,4,4,4,4,4,4,4,
4,4,4,4,4,4,4,4,4,4,4,4,4,4,4,
4,4,4,4,4,4,4,4,4,4,4,4,4,4,4,
4,4,4,4,4,4,4,4,4,4,4,4,4,4,4,
4,4,4,4,4,4,4,4,4,4,4,4,4,4,4,
4,4,4,4,4,4,4,4,4,4,4,4,4,4,4,
4,4,4,4,4,4,4,4,4,4,4,4,4,4,4,
4,4,4,4,4,4,4,4,4,4,4,4,4,4,4,
4,4,4,4,4,4,4,4,4,4,4,4,4,4,4,
4,4,4,4,4,4,4,4,4,4,4,4,4,4,4
</data>
 </layer>
 <layer id="3" name="walls" width="15" height="10">
  <data encoding="csv">
30,30,30,23,30,30,30,30,23,30,30,30,41,30,30,
15,0,0,0,0,0,0,0,0,0,0,0,0,0,15,
15,0,0,0,0,0,0,0,0,0,0,0,0,0,15,
15,0,0,0,0,0,0,0,0,0,0,0,0,0,15,
15,0,0,0,0,0,0,0,0,0,0,47,47,47,15,
15,0,0,0,0,0,0,0,0,0,0,0,0,0,15,
15,0,0,0,0,0,0,0,0,0,0,0,0,0,15,
15,0,0,0,0,0,0,0,0,0,0,0,0,0,15,
15,50,0,0,0,0,0,0,0,0,0,0,0,0,15,
15,15,15,15,15,15,15,15,15,15,15,15,15,15,15
</data>
 </layer>
 <layer id="4" name="dressing" width="15" height="10">
  <data encoding="csv">
0,0,0,0,0,0,0,0,0,0,0,0,0,0,0,
0,0,0,0,0,0,0,0,0,0,0,0,0,0,0,
0,0,0,0,0,0,0,0,0,0,0,0,0,0,0,
0,0,0,0,0,0,0,0,0,0,0,0,0,0,0,
0,0,0,0,0,0,0,0,0,0,0,0,0,0,0,
0,0,0,0,0,0,0,0,0,0,0,0,0,0,0,
0,0,0,0,0,0,0,0,0,0,0,0,0,0,0,
0,0,0,0,0,0,0,0,0,0,0,0,0,0,0,
0,0,0,0,0,0,0,0,0,0,0,0,0,0,0,
0,0,0,0,0,0,0,0,0,0,0,0,0,0,0
</data>
 </layer>
 <objectgroup id="2" name="placements">
  <object id="1" name="0" type="lift" x="32" y="32" width="16" height="16"/>
  <object id="2" name="1" type="lift" x="112" y="32" width="16" height="16"/>
  <object id="3" name="tool_rack" type="furniture" x="16" y="64" width="16" height="16"/>
  <object id="4" name="till" type="furniture" x="192" y="64" width="16" height="16">
   <properties>
    <property name="blocks" type="bool" value="false"/>
   </properties>
  </object>
  <object id="5" name="default" type="spawn" x="96" y="80" width="16" height="16"/>
  <object id="6" name="workbench" type="furniture" x="16" y="96" width="16" height="16"/>
  <object id="7" name="sack" type="furniture" x="208" y="96" width="16" height="16"/>
  <object id="8" name="crates" type="furniture" x="192" y="112" width="16" height="16"/>
  <object id="9" name="entry" type="spawn" x="96" y="128" width="16" height="16"/>
  <object id="10" name="west_entry" type="door" x="96" y="144" width="16" height="16">
   <properties>
    <property name="spawn" value="from_garage"/>
   </properties>
  </object>
 </objectgroup>
</map>
