<?xml version="1.0" encoding="UTF-8"?>
<map version="1.10" tiledversion="1.12.0" orientation="orthogonal" renderorder="right-down" width="14" height="10" tilewidth="16" tileheight="16" infinite="0" nextlayerid="5" nextobjectid="10">
 <properties>
  <property name="map" value="motel"/>
 </properties>
 <tileset firstgid="1" source="tiled/floors.tsx"/>
 <tileset firstgid="13" source="tiled/walls.tsx"/>
 <tileset firstgid="55" source="tiled/dressing.tsx"/>
 <layer id="1" name="floor" width="14" height="10">
  <data encoding="csv">
6,6,6,6,6,6,6,6,6,6,6,6,6,6,
6,6,6,6,6,6,6,6,6,6,6,6,6,6,
6,6,6,6,6,6,6,6,6,6,6,6,6,6,
6,6,6,6,6,6,6,6,6,6,6,6,6,6,
6,6,6,6,6,6,10,10,6,6,6,6,6,6,
6,6,6,6,6,6,10,10,6,6,6,6,6,6,
6,6,6,6,6,6,6,6,6,6,6,6,6,6,
6,6,6,6,6,6,6,6,6,6,6,6,6,6,
6,6,6,6,6,6,6,6,6,6,6,6,6,6,
6,6,6,6,6,6,6,6,6,6,6,6,6,6
</data>
 </layer>
 <layer id="3" name="walls" width="14" height="10">
  <data encoding="csv">
29,29,41,29,29,24,29,29,29,23,29,29,29,29,
13,0,0,0,0,0,0,0,0,0,0,0,0,13,
13,0,0,0,0,0,0,0,0,0,0,0,0,13,
13,0,0,0,0,0,0,0,0,0,0,0,0,13,
13,47,47,47,0,0,0,0,0,0,0,0,0,13,
13,0,0,0,0,0,0,0,0,0,0,0,0,13,
13,0,0,0,0,0,0,0,0,0,0,0,0,13,
13,0,0,0,0,0,0,0,0,0,0,0,0,13,
13,51,0,0,0,0,0,0,0,0,0,0,50,13,
13,13,13,13,13,13,13,13,13,13,13,13,13,13
</data>
 </layer>
 <layer id="4" name="dressing" width="14" height="10">
  <data encoding="csv">
0,0,0,0,0,0,0,0,0,0,0,0,0,0,
0,0,0,0,0,0,0,0,0,0,0,0,0,0,
0,0,0,0,0,0,0,0,0,0,0,0,0,0,
0,0,0,0,0,0,0,0,0,0,0,0,0,0,
0,0,0,0,0,0,0,0,0,0,0,0,0,0,
0,0,0,0,0,0,0,0,0,0,0,0,0,0,
0,0,0,0,0,0,0,0,0,0,0,0,0,0,
0,0,0,0,0,0,0,0,0,0,0,0,0,0,
0,0,0,0,0,0,0,0,0,0,0,0,0,0,
0,0,0,0,0,0,0,0,0,0,0,0,0,0
</data>
 </layer>
 <objectgroup id="2" name="placements">
  <object id="1" name="dresser" type="furniture" x="16" y="16" width="16" height="16"/>
  <object id="2" name="bench" type="furniture" x="128" y="16" width="16" height="16"/>
  <object id="3" name="books" type="furniture" x="176" y="16" width="16" height="16"/>
  <object id="4" name="lamp" type="furniture" x="16" y="64" width="16" height="16">
   <properties>
    <property name="blocks" type="bool" value="false"/>
   </properties>
  </object>
  <object id="5" name="till" type="furniture" x="32" y="64" width="16" height="16">
   <properties>
    <property name="blocks" type="bool" value="false"/>
   </properties>
  </object>
  <object id="6" name="books" type="furniture" x="48" y="64" width="16" height="16">
   <properties>
    <property name="blocks" type="bool" value="false"/>
   </properties>
  </object>
  <object id="7" name="default" type="spawn" x="112" y="96" width="16" height="16"/>
  <object id="8" name="entry" type="spawn" x="112" y="128" width="16" height="16"/>
  <object id="9" name="west_entry" type="door" x="112" y="144" width="16" height="16">
   <properties>
    <property name="spawn" value="from_motel"/>
   </properties>
  </object>
 </objectgroup>
</map>
