<?xml version="1.0" encoding="UTF-8"?>
<map version="1.10" tiledversion="1.12.0" orientation="orthogonal" renderorder="right-down" width="12" height="9" tilewidth="16" tileheight="16" infinite="0" nextlayerid="5" nextobjectid="11">
 <properties>
  <property name="map" value="salon"/>
 </properties>
 <tileset firstgid="1" source="tiled/floors.tsx"/>
 <tileset firstgid="13" source="tiled/walls.tsx"/>
 <tileset firstgid="55" source="tiled/dressing.tsx"/>
 <layer id="1" name="floor" width="12" height="9">
  <data encoding="csv">
7,7,7,7,7,7,7,7,7,7,7,7,
7,7,7,7,7,7,7,7,7,7,7,7,
7,7,7,7,7,7,7,7,7,7,7,7,
7,7,7,7,7,7,7,7,7,7,7,7,
7,7,7,7,7,7,7,7,7,7,7,7,
7,7,7,7,7,9,7,7,7,7,7,7,
7,7,7,7,7,7,7,7,7,7,7,7,
7,7,7,7,7,7,7,7,7,7,7,7,
7,7,7,7,7,7,7,7,7,7,7,7
</data>
 </layer>
 <layer id="3" name="walls" width="12" height="9">
  <data encoding="csv">
29,29,29,24,29,29,41,29,24,29,29,29,
17,0,0,0,0,0,0,0,0,0,0,17,
17,0,0,0,0,0,0,0,0,0,0,17,
17,0,0,0,0,0,0,0,0,0,0,17,
17,0,0,0,0,0,0,0,0,0,0,17,
17,0,0,0,0,0,0,0,0,0,0,17,
17,0,0,0,0,0,0,0,0,0,0,17,
17,0,0,0,0,0,0,0,0,0,0,17,
17,17,17,17,17,17,17,17,17,17,17,17
</data>
 </layer>
 <layer id="4" name="dressing" width="12" height="9">
  <data encoding="csv">
0,0,0,0,0,0,0,0,0,0,0,0,
0,0,0,0,0,0,0,0,0,0,0,0,
0,0,0,0,0,0,0,0,0,0,0,0,
0,0,0,0,0,0,0,0,0,0,0,0,
0,0,0,0,0,0,0,0,0,0,0,0,
0,0,0,0,0,0,0,0,0,0,0,0,
0,0,0,0,0,0,0,0,0,0,0,0,
0,0,0,0,0,0,0,0,0,0,0,0,
0,0,0,0,0,0,0,0,0,0,0,0
</data>
 </layer>
 <objectgroup id="2" name="placements">
  <object id="1" name="dresser" type="furniture" x="16" y="16" width="16" height="16"/>
  <object id="2" name="candles" type="furniture" x="32" y="16" width="16" height="16"/>
  <object id="3" name="stained" type="furniture" x="160" y="16" width="16" height="16"/>
  <object id="4" name="chair_front" type="furniture" x="80" y="64" width="16" height="16"/>
  <object id="5" name="stool" type="furniture" x="112" y="64" width="16" height="16"/>
  <object id="6" name="default" type="spawn" x="96" y="80" width="16" height="16"/>
  <object id="7" name="bucket" type="furniture" x="16" y="96" width="16" height="16"/>
  <object id="8" name="books" type="furniture" x="160" y="96" width="16" height="16"/>
  <object id="9" name="entry" type="spawn" x="96" y="112" width="16" height="16"/>
  <object id="10" name="east_entry" type="door" x="96" y="128" width="16" height="16">
   <properties>
    <property name="spawn" value="from_salon"/>
   </properties>
  </object>
 </objectgroup>
</map>
